assets/layers/crossings/Belgian_road_sign_B23.svg

<?xml version="1.0" encoding="UTF-8" standalone="yes"?>
<svg xmlns="http://www.w3.org/2000/svg" xmlns:xlink="http://www.w3.org/1999/xlink" width="374px" height="328px" viewBox="0 0 374 328" version="1.1">
  <g id="surface1">
    <path style=" stroke:none;fill-rule:nonzero;fill:rgb(92.941177%,10.980392%,14.117648%);fill-opacity:1;" d="M 170.21875 318.898438 C 173.652344 324.359375 179.734375 327.785156 186.757812 327.785156 C 193.464844 327.785156 196.4375 324.503906 200.023438 319.519531 L 370.292969 33.160156 C 376.230469 25.363281 374.816406 13.035156 367.640625 5.863281 C 363.582031 1.808594 358.898438 -0.0625 353.59375 0.246094 L 16.335938 0.402344 C 12.4375 1.027344 8.6875 2.898438 5.722656 5.863281 C -0.0507812 11.789062 -1.457031 20.367188 1.507812 27.703125 Z M 170.21875 318.898438 "/>
    <path style=" stroke:none;fill-rule:evenodd;fill:rgb(100%,100%,100%);fill-opacity:1;" d="M 316.917969 42.828125 L 57.222656 42.828125 L 187.070312 267.273438 Z M 316.917969 42.828125 "/>
    <path style="fill-rule:evenodd;fill:rgb(100%,92.941177%,27.058825%);fill-opacity:1;stroke-width:0.32;stroke-linecap:round;stroke-linejoin:round;stroke:rgb(0%,0%,0%);stroke-opacity:1;stroke-miterlimit:4;" d="M -231.263463 357.697782 C -232.606879 357.821592 -233.78457 358.392716 -234.730085 359.3816 C -235.728441 360.425599 -236.266448 361.658109 -236.339303 363.061557 C -236.372928 363.720546 -236.226417 364.308445 -235.825314 365.126391 C -235.245675 366.304584 -234.387426 367.316632 -233.529978 367.831043 C -233.423497 367.894945 -233.21534 367.987603 -233.068028 368.036329 C -232.546834 368.208065 -232.442755 368.297528 -232.447559 368.569112 C -232.453964 368.835104 -232.784614 369.392649 -233.187318 369.813603 C -233.316216 369.947798 -233.349841 369.964572 -233.476337 369.964572 C -233.646866 369.964572 -233.792576 369.887889 -234.434662 369.458947 C -236.475406 368.097834 -240.847513 364.727802 -241.039658 364.368353 C -241.095701 364.263714 -241.06848 363.937813 -240.990821 363.785247 C -240.959598 363.722943 -240.863525 363.575968 -240.776259 363.457749 C -240.458419 363.023216 -240.363147 362.719681 -240.391168 362.235623 C -240.423192 361.679676 -240.598525 361.329014 -241.024447 360.970364 C -241.543239 360.533434 -241.673738 360.513464 -242.399887 360.761085 C -242.672894 360.853742 -242.908272 360.914449 -242.999541 360.914449 C -243.244526 360.914449 -243.414255 360.772267 -243.830569 360.220314 C -244.652791 359.129187 -245.57669 358.436649 -246.759185 358.024481 C -247.368446 357.812007 -247.711105 357.760086 -248.489294 357.760086 C -249.222648 357.760086 -249.420398 357.786446 -249.988828 357.957384 C -251.914284 358.537294 -253.441039 360.358502 -253.709242 362.393781 C -254.013472 364.703839 -252.696476 367.022683 -250.551654 367.953256 C -249.903163 368.234425 -249.353948 368.345455 -248.489294 368.368619 C -247.723114 368.389387 -247.160288 368.319095 -246.599864 368.131383 C -245.896933 367.896543 -245.406962 367.583423 -244.607958 366.858934 C -244.084361 366.38526 -243.680056 366.091311 -243.571173 366.107287 C -243.51433 366.115274 -243.503122 366.13764 -243.508726 366.238286 C -243.531944 366.628887 -244.053938 368.02914 -244.78249 369.651452 C -245.178789 370.534099 -245.237234 370.649921 -245.456599 370.980614 C -245.699984 371.348849 -245.852899 371.461477 -246.234788 371.550141 C -246.585453 371.633213 -246.753581 371.711493 -246.853656 371.836901 C -247.01698 372.045381 -246.859261 372.208331 -246.418127 372.28102 C -246.02583 372.346519 -242.785779 372.346519 -242.428709 372.281819 C -242.124479 372.226703 -242.005989 372.169191 -241.962757 372.054966 C -241.909917 371.915181 -241.983572 371.78498 -242.160506 371.706701 C -242.282198 371.653183 -242.446322 371.633213 -243.054783 371.59647 C -243.463892 371.573305 -243.856989 371.536561 -243.926642 371.516592 C -244.043531 371.482245 -244.052337 371.471861 -244.034724 371.384794 C -243.929044 370.85281 -241.759403 365.93555 -241.630505 365.93555 C -241.47759 365.93555 -240.797875 366.328547 -239.789112 367.001915 C -238.872419 367.612978 -238.063807 368.193687 -235.718033 369.921438 L -233.880643 371.275362 L -232.031244 371.297728 C -229.64624 371.326484 -229.47411 371.34805 -229.216315 371.641201 C -229.065 371.81134 -228.891269 372.210728 -228.842432 372.49589 C -228.81361 372.660438 -228.817613 372.739517 -228.863248 372.923235 C -228.936103 373.218782 -229.150665 373.658108 -229.288369 373.7939 C -229.538959 374.040722 -229.729503 374.078264 -231.147375 374.160538 C -232.360293 374.23083 -232.678934 374.261183 -233.069629 374.344256 C -233.300204 374.39378 -233.403482 374.454487 -233.363452 374.519987 C -233.326624 374.579096 -232.901502 374.650986 -232.358692 374.690925 C -231.660564 374.741247 -229.948869 374.712491 -229.653445 374.645394 C -229.311587 374.567114 -229.095423 374.436115 -228.871254 374.172519 C -228.361268 373.575036 -228.148307 372.92643 -228.270799 372.343324 C -228.354863 371.943138 -228.521389 371.642799 -228.832024 371.334471 C -229.137855 371.031736 -229.403656 370.870383 -229.830379 370.727402 C -230.16263 370.617171 -230.454851 370.575635 -231.216227 370.530105 C -231.936772 370.488568 -232.122513 370.410288 -232.120912 370.149888 C -232.120111 369.969365 -232.040051 369.804018 -231.799869 369.486106 C -231.273871 368.790372 -230.825532 368.513996 -229.925651 368.330278 C -229.200302 368.181706 -228.754365 368.004378 -228.141101 367.619368 C -226.386174 366.517857 -225.515915 364.891551 -225.591172 362.851479 C -225.621595 362.033533 -225.781717 361.372148 -226.123575 360.666829 C -226.419799 360.054967 -226.801688 359.584489 -227.374922 359.121199 C -228.57583 358.14909 -230.098582 357.592343 -231.263463 357.697782 Z M -231.263463 357.697782 " transform="matrix(4.879119,0,0,-4.8903,1353.971313,1881.917358)"/>
    <path style="fill-rule:nonzero;fill:rgb(100%,92.941177%,27.058825%);fill-opacity:1;stroke-width:0.32;stroke-linecap:butt;stroke-linejoin:miter;stroke:rgb(0%,0%,0%);stroke-opacity:1;stroke-miterlimit:4;" d="M -241.069281 349.143699 L -243.25013 349.209997 L -239.219882 351.587951 L -234.991884 349.143699 L -237.171132 349.143699 L -237.271208 340.918711 L -241.135731 340.918711 Z M -241.069281 349.143699 " transform="matrix(4.879119,0,0,-4.8903,1353.971313,1881.917358)"/>
  </g>
</svg>

<?xml version="1.0" encoding="UTF-8" standalone="no"?>
<!-- Created with Inkscape (http://www.inkscape.org/) -->

<svg
        xmlns:dc="http://purl.org/dc/elements/1.1/"
        xmlns:cc="http://creativecommons.org/ns#"
        xmlns:rdf="http://www.w3.org/1999/02/22-rdf-syntax-ns#"
        xmlns:sodipodi="http://sodipodi.sourceforge.net/DTD/sodipodi-0.dtd"
        xmlns:inkscape="http://www.inkscape.org/namespaces/inkscape"
        xmlns="http://www.w3.org/2000/svg"
        id="svg2816"
        version="1.1"
        inkscape:version="0.47 r22583"
        width="95.81649"
        height="83.729599"
        xml:space="preserve"
        sodipodi:docname="Belgio.pdf"><metadata
     id="metadata2822"><rdf:RDF><cc:Work
         rdf:about=""><dc:format>image/svg+xml</dc:format><dc:type
        rdf:resource="http://purl.org/dc/dcmitype/StillImage"/><dc:title></dc:title></cc:Work></rdf:RDF></metadata>
    <defs
            id="defs2820"><inkscape:perspective
       sodipodi:type="inkscape:persp3d"
       inkscape:vp_x="0 : 0.5 : 1"
       inkscape:vp_y="0 : 1000 : 0"
       inkscape:vp_z="1 : 0.5 : 1"
       inkscape:persp3d-origin="0.5 : 0.33333333 : 1"
       id="perspective2824" />
        <clipPath
                clipPathUnits="userSpaceOnUse"
                id="clipPath2844"><path
         d="m 2562,672.668 3,0 0,-108 -3,0 0,108 z"
         id="path2846" /></clipPath>
        <clipPath
                clipPathUnits="userSpaceOnUse"
                id="clipPath2854"><path
         d="m 731,6133.67 780,0 0,-679 -780,0 0,679 z"
         id="path2856" /></clipPath>
        <clipPath
                clipPathUnits="userSpaceOnUse"
                id="clipPath2892"><path
         d="m 731,4841.67 780,0 0,-680 -780,0 0,680 z"
         id="path2894" /></clipPath>
        <clipPath
                clipPathUnits="userSpaceOnUse"
                id="clipPath3090"><path
         d="m 731,2387.67 779,0 0,-684 -779,0"
         id="path3092" /></clipPath>
        <inkscape:perspective
                id="perspective3129"
                inkscape:persp3d-origin="47.908001 : 27.909665 : 1"
                inkscape:vp_z="95.816002 : 41.864498 : 1"
                inkscape:vp_y="0 : 1000 : 0"
                inkscape:vp_x="0 : 41.864498 : 1"
                sodipodi:type="inkscape:persp3d"/>
        <inkscape:perspective
                id="perspective4211"
                inkscape:persp3d-origin="39.790001 : 26.495 : 1"
                inkscape:vp_z="79.580002 : 39.7425 : 1"
                inkscape:vp_y="0 : 1000 : 0"
                inkscape:vp_x="0 : 39.7425 : 1"
                sodipodi:type="inkscape:persp3d"/></defs>
    <sodipodi:namedview
            pagecolor="#ffffff"
            bordercolor="#666666"
            borderopacity="1"
            objecttolerance="10"
            gridtolerance="10"
            guidetolerance="10"
            inkscape:pageopacity="0"
            inkscape:pageshadow="2"
            inkscape:window-width="1600"
            inkscape:window-height="838"
            id="namedview2818"
            showgrid="false"
            inkscape:zoom="2.140677"
            inkscape:cx="47.742493"
            inkscape:cy="42.339324"
            inkscape:window-x="0"
            inkscape:window-y="0"
            inkscape:window-maximized="1"
            inkscape:current-layer="g2826"/>
    <g
            id="g2826"
            inkscape:groupmode="layer"
            inkscape:label="Belgio"
            transform="matrix(1.25,0,0,-1.25,346.87909,480.97823)"><g
   id="g2840"
   transform="matrix(0.09762902,0,0,0.09762902,-202.75728,115.54083)"><g
     clip-path="url(#clipPath2844)"
     id="g2842"><g
       transform="scale(8.33333,8.33333)"
       id="g2848" /></g></g>


        <g
                id="g4226"><path
     style="fill:#ed1c24"
     d="m -242.61678,319.6165 c 0.704,-1.1168 1.9512,-1.8176 3.3904,-1.8176 1.3752,0 1.984,0.6704 2.7192,1.6896 l 34.8976,58.5576 c 1.216,1.5944 0.9264,4.1144 -0.544,5.5816 -0.832,0.8288 -1.792,1.212 -2.8792,1.148 l -69.1224,-0.032 c -0.7992,-0.1272 -1.5672,-0.5104 -2.1752,-1.116 -1.1832,-1.212 -1.4712,-2.9656 -0.864,-4.4656 l 34.5776,-59.5456 z"
     id="path3115" />
            <path
                    style="fill:none;stroke:#ed1c24;stroke-width:0;stroke-miterlimit:3.86299992"
                    stroke-miterlimit="3.863"
                    d="m -242.61678,319.6165 c 0.704,-1.1168 1.9512,-1.8176 3.3904,-1.8176 1.3752,0 1.984,0.6704 2.7192,1.6896 l 34.8976,58.5576 c 1.216,1.5944 0.9264,4.1144 -0.544,5.5816 -0.832,0.8296 -1.792,1.212 -2.8792,1.148 l -69.1224,-0.032 c -0.7992,-0.1272 -1.5672,-0.5104 -2.1752,-1.116 -1.1832,-1.212 -1.4712,-2.9656 -0.864,-4.4656 l 34.5776,-59.5456 z"
                    id="path3117"/>
            <polygon
                    style="fill:#ffffff;fill-rule:evenodd"
                    transform="matrix(0.8,0,0,-0.8,-277.50318,384.7821)"
                    clip-rule="evenodd"
                    points="81.192,10.892 14.66,10.892 47.926,68.261 "
                    id="polygon3119"/>
            <polygon
                    style="fill:none;stroke:#ed1c24;stroke-width:0;stroke-miterlimit:3.86299992"
                    transform="matrix(0.8,0,0,-0.8,-277.50318,384.7821)"
                    stroke-miterlimit="3.863"
                    points="81.192,10.892 14.66,10.892 47.926,68.261 "
                    id="polygon3121"/>
            <path
                    id="path4186"
                    d="m -231.26354,357.69838 c -1.34367,0.12281 -2.52121,0.69462 -3.46633,1.68322 -0.998,1.04394 -1.53671,2.27606 -1.60888,3.67984 -0.0339,0.65964 0.11226,1.24682 0.51395,2.0645 0.57894,1.1785 1.43752,2.19077 2.29437,2.70506 0.10668,0.0641 0.31479,0.15627 0.46244,0.20495 0.52155,0.17194 0.62599,0.26164 0.62055,0.53293 -0.006,0.26596 -0.33704,0.82354 -0.7403,1.2444 -0.12913,0.13476 -0.16161,0.15184 -0.28886,0.15184 -0.16967,0 -0.31579,-0.0771 -0.958,-0.5056 -2.04063,-1.36152 -6.41288,-4.73175 -6.60552,-5.09169 -0.0559,-0.10455 -0.0285,-0.42985 0.0492,-0.58259 0.0315,-0.062 0.12797,-0.20932 0.21429,-0.32741 0.31765,-0.43453 0.41348,-0.73823 0.38564,-1.22219 -0.032,-0.55638 -0.20725,-0.9062 -0.6338,-1.26523 -0.51867,-0.43658 -0.64949,-0.45651 -1.37516,-0.20944 -0.27308,0.093 -0.50906,0.1534 -0.59909,0.1534 -0.24478,0 -0.41506,-0.14213 -0.83113,-0.69367 -0.82327,-1.09133 -1.74662,-1.78358 -2.92939,-2.19619 -0.60899,-0.21244 -0.95078,-0.26471 -1.73015,-0.26455 -0.73272,1.3e-4 -0.93055,0.0262 -1.49924,0.19736 -1.92475,0.57934 -3.4522,2.40105 -3.72021,4.43692 -0.30411,2.3101 1.01272,4.62854 3.15722,5.55867 0.64918,0.28156 1.19823,0.39229 2.06223,0.41592 0.76732,0.021 1.32941,-0.0495 1.88997,-0.23708 0.70208,-0.2349 1.19254,-0.54828 1.99128,-1.27237 0.52363,-0.4747 0.92806,-0.76798 1.03743,-0.75235 0.0574,0.008 0.0679,0.0305 0.0622,0.13141 -0.0225,0.38996 -0.5451,1.79029 -1.27378,3.41288 -0.39655,0.88303 -0.45502,0.99838 -0.67399,1.32971 -0.24305,0.36776 -0.39642,0.48005 -0.778,0.56964 -0.35042,0.0823 -0.51951,0.16055 -0.61842,0.28628 -0.16426,0.20883 -0.006,0.37121 0.43469,0.4444 0.39259,0.0653 3.63288,0.0655 3.99004,3.1e-4 0.30374,-0.0554 0.42221,-0.11317 0.46536,-0.22667 0.0531,-0.1398 -0.0206,-0.27007 -0.19734,-0.34823 -0.12228,-0.0541 -0.28608,-0.0742 -0.89427,-0.10965 -0.40952,-0.0239 -0.80194,-0.0602 -0.87206,-0.0805 -0.11725,-0.0341 -0.12596,-0.0447 -0.10851,-0.13201 0.10648,-0.53243 2.27576,-5.44935 2.40417,-5.44935 0.15339,0 0.83299,0.39345 1.84192,1.06636 0.91635,0.61116 1.72519,1.19134 4.07094,2.92004 l 1.83714,1.35389 1.84918,0.0223 c 2.38508,0.0288 2.55796,0.0498 2.81579,0.34273 0.15082,0.17134 0.32526,0.57007 0.37407,0.855 0.0282,0.16441 0.0242,0.24368 -0.0211,0.42763 -0.073,0.29561 -0.28752,0.73526 -0.42498,0.87079 -0.25047,0.24694 -0.44151,0.28458 -1.85986,0.36645 -1.21249,0.07 -1.53162,0.10049 -1.92144,0.18373 -0.23089,0.0493 -0.33407,0.1108 -0.29417,0.17536 0.0366,0.0592 0.46162,0.1317 1.0045,0.17138 0.69842,0.051 2.40993,0.0222 2.70529,-0.0456 0.34217,-0.0786 0.55789,-0.20879 0.78273,-0.47256 0.50948,-0.59769 0.72258,-1.2471 0.60028,-1.8293 -0.0842,-0.40068 -0.25149,-0.70122 -0.56153,-1.00855 -0.30557,-0.3029 -0.57152,-0.46469 -0.99823,-0.60726 -0.3324,-0.11107 -0.62458,-0.15262 -1.38578,-0.19709 -0.72069,-0.0421 -0.90676,-0.12032 -0.90536,-0.38058 8e-4,-0.18061 0.0813,-0.34664 0.32122,-0.66377 0.52666,-0.69617 0.97508,-0.97276 1.87468,-1.15631 0.72541,-0.14801 1.1711,-0.32548 1.78453,-0.71059 1.7548,-1.10164 2.62477,-2.72806 2.55011,-4.76748 -0.03,-0.81857 -0.19121,-1.47945 -0.53315,-2.18515 -0.29617,-0.61127 -0.67699,-1.08214 -1.25031,-1.54601 -1.20112,-0.97181 -2.72396,-1.52872 -3.88898,-1.42224 z"
                    style="fill:#ffed45;fill-opacity:1;fill-rule:evenodd;stroke:#000000;stroke-width:0.31999999;stroke-linecap:round;stroke-linejoin:round;stroke-miterlimit:4;stroke-opacity:1;stroke-dasharray:none;stroke-dashoffset:0"/>
            <path
                    sodipodi:nodetypes="cccccccccc"
                    id="path4222"
                    d="m -241.06949,349.14367 -2.18011,0.0661 4.0299,2.37829 4.22809,-2.44436 -2.18011,4e-5 -0.0991,-8.22496 -3.86473,10e-6 0.0661,8.22488 1e-5,0 -5e-5,0 z"
                    style="fill:#ffed45;fill-opacity:1;stroke:#000000;stroke-width:0.31999999;stroke-linecap:butt;stroke-linejoin:miter;stroke-miterlimit:4;stroke-opacity:1;stroke-dasharray:none"/></g></g></svg>
